launcher/android/assets/skins/day/svg/mapLetterbox1.svg

<svg enable-background="new 0 0 258.00 258.00" height="258" viewBox="0 0 258 258" width="258" xmlns="http://www.w3.org/2000/svg" xmlns:xlink="http://www.w3.org/1999/xlink"><linearGradient id="a" gradientTransform="matrix(.296907171134 .954906347099 -.954906347099 .296907171134 -.084017933741 -.657188945114)" gradientUnits="objectBoundingBox" x1=".404272" x2="2.18571" y1="-.385649" y2="-.385649"><stop offset="0" stop-color="#5b5b5b"/><stop offset=".275862" stop-color="#656565" stop-opacity=".996078"/><stop offset=".383621" stop-color="#f7f7f7"/><stop offset=".396552" stop-color="#fefefe" stop-opacity=".0666667"/><stop offset="1" stop-color="#fff" stop-opacity="0"/></linearGradient><g stroke-linejoin="round"><g fill="#fff"><path d="m41.0968 103.371c0 18.38-.1667 53.715.0417 71.843.2083 18.128.7918 19.049 1.792 20.137 1.0002 1.089 2.4172 2.345 4.0425 3.266 1.6254.921 3.4591 1.507 10.6689.544s19.7957-3.475 35.3823-6.991c15.5868-3.517 34.1738-8.039 53.4698-12.602 19.295-4.564 39.299-9.169 50.343-11.848 11.044-2.68 13.128-3.433 14.462-3.936 1.333-.502 1.917-.753 2.458-1.423.542-.67 1.042-1.759 1.209-18.714.167-16.956 0-49.7795-.167-66.4004-.166-16.621-.333-17.0398-2.042-18.3794-1.708-1.3397-4.959-3.6004-7.21-5.1914-2.25-1.5911-3.5-2.5121-5.542-3.0561-2.042-.5444-4.876-.7118-9.211-.2933-4.334.4187-10.168 1.4236-29.089 4.8984-18.921 3.4749-50.927 9.4199-72.1399 13.439-21.2127 4.0193-31.6315 6.1126-37.9661 8.0385-6.3347 1.9258-8.5851 3.6842-9.627 5.275-1.0419 1.5911-.8752 3.0146-.8752 21.3937z" stroke-width=".2"/><path d="m45.0273 106.915c0 16.445-.1576 48.063.0394 64.283.197 16.221.7486 17.045 1.6942 18.019s2.2852 2.098 3.8218 2.922 3.2701 1.349 10.0863.487 18.715-3.109 33.4505-6.256 32.3075-7.192 50.5505-11.276c18.242-4.083 37.154-8.204 47.595-10.601 10.441-2.398 12.411-3.072 13.671-3.522 1.261-.449 1.813-.674 2.325-1.273.512-.6.985-1.574 1.143-16.746.157-15.171 0-44.5408-.158-59.4129-.158-14.8723-.315-15.2468-1.931-16.4456-1.615-1.1988-4.688-3.2216-6.816-4.6452-2.127-1.4236-3.309-2.2476-5.24-2.7346s-4.61-.6369-8.707-.2623c-4.098.3746-9.614 1.2737-27.501 4.3829-17.888 3.1093-48.147 8.4289-68.2017 12.0251-20.0545 3.5963-29.9045 5.4694-35.8933 7.1925-5.9887 1.7233-8.1163 3.2968-9.1013 4.7202-.985 1.4235-.8274 2.6973-.8274 19.1429z" fill-opacity=".517647" stroke="#7a7777" stroke-opacity=".517647" stroke-width="15"/><path d="m86.0426 178.316c8.6285-9.628 27.8554-28.883 38.7694-40.009s13.514-14.123 17.218-15.996c3.703-1.873 8.51-2.622 12.962-2.023 4.453.6 8.55 2.548 17.021 8.167s21.315 14.91 28.013 20.304 7.25 6.893 7.526 8.017.276 1.873-.355 2.734c-.63.862-1.891 1.836-21.591 6.406s-57.839 12.737-78.288 17.008c-20.448 4.27-23.206 4.645-25.57 4.832-2.364.188-4.334.188 4.2946-9.44z" fill-opacity=".517647" stroke="#7a7777" stroke-opacity=".517647" stroke-width="15"/><path d="m48.6915 88.7086c1.2214 1.2363 5.7129 1.9106 9.1013 2.8844 3.3884.9742 5.6736 2.2479 8.7074 3.7837 3.0338 1.5359 6.8162 3.334 16.745 8.2413 9.9287 4.908 26.0038 12.924 36.9178 18.469 10.914 5.544 16.666 8.616 20.961 10.863 4.294 2.248 7.131 3.672 9.692 4.271s4.846.374 7.053.187c2.206-.187 4.334-.337 6.185-1.198 1.852-.862 3.428-2.435 4.925-4.458 1.498-2.023 2.916-4.496 8.432-14.273 5.516-9.778 15.129-26.8598 20.173-36.7497 5.043-9.8897 5.516-12.5869 5.437-14.4225s-.709-2.8096-1.931-3.9335c-1.221-1.1238-3.034-2.3974-6.107-3.0343-3.073-.6368-7.407-.6368-29.904 3.1093-22.498 3.7462-63.158 11.2384-85.104 15.4341-21.9458 4.1955-25.1766 5.0947-27.8164 6.4433-2.6397 1.3486-4.6885 3.1467-3.4671 4.3829z" fill-opacity=".517647" stroke="#7a7777" stroke-opacity=".517647" stroke-width="15"/></g><path d="m83.926 184.571c9.125-10.708 29.458-32.125 41-44.5s14.292-15.708 18.208-17.792c3.917-2.083 9-2.916 13.709-2.25 4.708.667 9.041 2.834 18 9.084 8.958 6.25 22.541 16.583 29.625 22.583 7.083 6 7.666 7.667 7.958 8.917s.292 2.083-.375 3.041c-.667.959-2 2.042-22.833 7.125-20.834 5.084-61.167 14.167-82.792 18.917s-24.5417 5.167-27.0417 5.375-4.5833.208 4.5417-10.5z" fill="none" stroke="#000" stroke-width="5"/><path d="m47.9684 91.0137c1.2504 1.3311 5.8488 2.0571 9.3178 3.106 3.469 1.0485 5.8086 2.4201 8.9145 4.0739 3.106 1.6538 6.9783 3.5904 17.1432 8.8744 10.165 5.284 26.6221 13.916 37.7961 19.886 11.173 5.97 17.062 9.277 21.459 11.698 4.397 2.42 7.301 3.953 9.923 4.598 2.622.646 4.961.403 7.22.202 2.259-.202 4.437-.363 6.333-1.291s3.509-2.622 5.042-4.8 2.985-4.841 8.632-15.369c5.648-10.527 15.49-28.9212 20.653-39.5701s5.647-13.5532 5.566-15.5298c-.08-1.9764-.726-3.0252-1.976-4.2353-1.251-1.2102-3.106-2.5816-6.252-3.2674-3.147-.6856-7.584-.6856-30.616 3.3481-23.033 4.0336-64.66 12.101-87.128 16.6187-22.4677 4.5179-25.7754 5.4859-28.478 6.938-2.7025 1.4522-4.8001 3.3882-3.5496 4.7195z" fill="#fff" stroke="url(#a)" stroke-width="12"/><path d="m40.551 105.154c0 18.292-.1667 53.459.0416 71.5.2084 18.042.7917 18.959 1.7917 20.042s2.4167 2.333 4.0417 3.25 3.4583 1.5 10.6666.542c7.2084-.959 19.7917-3.459 35.375-6.959 15.5834-3.5 34.1664-8 53.4584-12.541 19.292-4.542 39.292-9.125 50.333-11.792 11.042-2.667 13.125-3.417 14.459-3.917 1.333-.5 1.916-.75 2.458-1.416.542-.667 1.042-1.75 1.208-18.625.167-16.875 0-49.5419-.166-66.0836-.167-16.5416-.334-16.9583-2.042-18.2916-1.708-1.3334-4.958-3.5834-7.208-5.1667s-3.5-2.5-5.542-3.0417c-2.042-.5416-4.875-.7083-9.208-.2916-4.334.4166-10.167 1.4166-29.084 4.875-18.916 3.4583-50.916 9.375-72.1247 13.375-21.2083 4-31.625 6.0833-37.9583 8-6.3334 1.9166-8.5834 3.6666-9.625 5.25-1.0417 1.5833-.875 3-.875 21.2912z" fill="none" stroke="#000" stroke-width="5"/><path d="m44.426 84.9044c1.2916 1.375 6.0416 2.125 9.625 3.2084 3.5833 1.0833 6 2.5 9.2083 4.2083s7.2083 3.7083 17.7083 9.1669c10.5 5.458 27.5004 14.375 39.0414 20.541 11.542 6.167 17.625 9.584 22.167 12.084s7.542 4.083 10.25 4.75c2.708.666 5.125.416 7.458.208 2.334-.208 4.584-.375 6.542-1.333 1.958-.959 3.625-2.709 5.208-4.959 1.584-2.25 3.084-5 8.917-15.875s16-29.8746 21.333-40.8746c5.334-11 5.834-14 5.75-16.0416-.083-2.0417-.75-3.125-2.041-4.375-1.292-1.25-3.209-2.6667-6.459-3.375-3.25-.7084-7.833-.7084-31.625 3.4583-23.791 4.1667-66.791 12.5-89.9997 17.1667-23.2083 4.6666-26.625 5.6666-29.4167 7.1666-2.7916 1.5-4.9583 3.5-3.6666 4.875z" fill="none" stroke="#000" stroke-width="5"/></g></svg>

﻿<?xml version="1.0" encoding="utf-8"?>
<!DOCTYPE svg PUBLIC "-//W3C//DTD SVG 1.1//EN" "http://www.w3.org/Graphics/SVG/1.1/DTD/svg11.dtd">
<svg xmlns="http://www.w3.org/2000/svg" xmlns:xlink="http://www.w3.org/1999/xlink" version="1.1" baseProfile="full" width="258" height="258" viewBox="0 0 258.00 258.00" enable-background="new 0 0 258.00 258.00" xml:space="preserve">
	<g>
		<path fill="#FFFFFF" fill-opacity="1" stroke-width="0.2" stroke-linejoin="round" d="M 41.0968,103.371C 41.0968,121.751 40.9301,157.086 41.1385,175.214C 41.3468,193.342 41.9303,194.263 42.9305,195.351C 43.9307,196.44 45.3477,197.696 46.973,198.617C 48.5984,199.538 50.4321,200.124 57.6419,199.161C 64.8517,198.198 77.4376,195.686 93.0242,192.17C 108.611,188.653 127.198,184.131 146.494,179.568C 165.789,175.004 185.793,170.399 196.837,167.72C 207.881,165.04 209.965,164.287 211.299,163.784C 212.632,163.282 213.216,163.031 213.757,162.361C 214.299,161.691 214.799,160.602 214.966,143.647C 215.133,126.691 214.966,93.8675 214.799,77.2466C 214.633,60.6256 214.466,60.2068 212.757,58.8672C 211.049,57.5275 207.798,55.2668 205.547,53.6758C 203.297,52.0847 202.047,51.1637 200.005,50.6197C 197.963,50.0753 195.129,49.9079 190.794,50.3264C 186.46,50.7451 180.626,51.75 161.705,55.2248C 142.784,58.6997 110.778,64.6447 89.5651,68.6638C 68.3524,72.6831 57.9336,74.7764 51.599,76.7023C 45.2643,78.6281 43.0139,80.3865 41.972,81.9773C 40.9301,83.5684 41.0968,84.9919 41.0968,103.371 Z "/>
		<g>
			<path fill="#FFFFFF" fill-opacity="0.517647" stroke-width="15" stroke-linejoin="round" stroke="#7A7777" stroke-opacity="0.517647" d="M 45.0273,106.915C 45.0273,123.36 44.8697,154.978 45.0667,171.198C 45.2637,187.419 45.8153,188.243 46.7609,189.217C 47.7065,190.191 49.0461,191.315 50.5827,192.139C 52.1193,192.963 53.8528,193.488 60.669,192.626C 67.4852,191.764 79.384,189.517 94.1195,186.37C 108.855,183.223 126.427,179.178 144.67,175.094C 162.912,171.011 181.824,166.89 192.265,164.493C 202.706,162.095 204.676,161.421 205.936,160.971C 207.197,160.522 207.749,160.297 208.261,159.698C 208.773,159.098 209.246,158.124 209.404,142.952C 209.561,127.781 209.404,98.4112 209.246,83.5391C 209.088,68.6668 208.931,68.2923 207.315,67.0935C 205.7,65.8947 202.627,63.8719 200.499,62.4483C 198.372,61.0247 197.19,60.2007 195.259,59.7137C 193.328,59.2267 190.649,59.0768 186.552,59.4514C 182.454,59.826 176.938,60.7251 159.051,63.8343C 141.163,66.9436 110.904,72.2632 90.8493,75.8594C 70.7948,79.4557 60.9448,81.3288 54.956,83.0519C 48.9673,84.7752 46.8397,86.3487 45.8547,87.7721C 44.8697,89.1956 45.0273,90.4694 45.0273,106.915 Z "/>
			<path fill="#FFFFFF" fill-opacity="0.517647" stroke-width="15" stroke-linejoin="round" stroke="#7A7777" stroke-opacity="0.517647" d="M 86.0426,178.316C 94.6711,168.688 113.898,149.433 124.812,138.307C 135.726,127.181 138.326,124.184 142.03,122.311C 145.733,120.438 150.54,119.689 154.992,120.288C 159.445,120.888 163.542,122.836 172.013,128.455C 180.484,134.074 193.328,143.365 200.026,148.759C 206.724,154.153 207.276,155.652 207.552,156.776C 207.828,157.9 207.828,158.649 207.197,159.51C 206.567,160.372 205.306,161.346 185.606,165.916C 165.906,170.486 127.767,178.653 107.318,182.924C 86.87,187.194 84.112,187.569 81.748,187.756C 79.384,187.944 77.414,187.944 86.0426,178.316 Z "/>
			<path fill="#FFFFFF" fill-opacity="0.517647" stroke-width="15" stroke-linejoin="round" stroke="#7A7777" stroke-opacity="0.517647" d="M 48.6915,88.7086C 49.9129,89.9449 54.4044,90.6192 57.7928,91.593C 61.1812,92.5672 63.4664,93.8409 66.5002,95.3767C 69.534,96.9126 73.3164,98.7107 83.2452,103.618C 93.1739,108.526 109.249,116.542 120.163,122.087C 131.077,127.631 136.829,130.703 141.124,132.95C 145.418,135.198 148.255,136.622 150.816,137.221C 153.377,137.82 155.662,137.595 157.869,137.408C 160.075,137.221 162.203,137.071 164.054,136.21C 165.906,135.348 167.482,133.775 168.979,131.752C 170.477,129.729 171.895,127.256 177.411,117.479C 182.927,107.701 192.54,90.6192 197.584,80.7293C 202.627,70.8396 203.1,68.1424 203.021,66.3068C 202.942,64.4712 202.312,63.4972 201.09,62.3733C 199.869,61.2495 198.056,59.9759 194.983,59.339C 191.91,58.7022 187.576,58.7022 165.079,62.4483C 142.581,66.1945 101.921,73.6867 79.975,77.8824C 58.0292,82.0779 54.7984,82.9771 52.1586,84.3257C 49.5189,85.6743 47.4701,87.4724 48.6915,88.7086 Z "/>
		</g>
		<path fill="none" stroke-width="5" stroke-linejoin="round" stroke="#000000" stroke-opacity="1" d="M 83.926,184.571C 93.051,173.863 113.384,152.446 124.926,140.071C 136.468,127.696 139.218,124.363 143.134,122.279C 147.051,120.196 152.134,119.363 156.843,120.029C 161.551,120.696 165.884,122.863 174.843,129.113C 183.801,135.363 197.384,145.696 204.468,151.696C 211.551,157.696 212.134,159.363 212.426,160.613C 212.718,161.863 212.718,162.696 212.051,163.654C 211.384,164.613 210.051,165.696 189.218,170.779C 168.384,175.863 128.051,184.946 106.426,189.696C 84.801,194.446 81.8843,194.863 79.3843,195.071C 76.8843,195.279 74.801,195.279 83.926,184.571 Z "/>
		<linearGradient id="SVGID_Stroke1_" gradientUnits="objectBoundingBox" x1="0.404272" y1="-0.385649" x2="2.18571" y2="-0.385649" gradientTransform="rotate(72.728065 0.404272 -0.385649)">
			<stop offset="0" stop-color="#5B5B5B" stop-opacity="1"/>
			<stop offset="0.275862" stop-color="#656565" stop-opacity="0.996078"/>
			<stop offset="0.383621" stop-color="#F7F7F7" stop-opacity="1"/>
			<stop offset="0.396552" stop-color="#FEFEFE" stop-opacity="0.0666667"/>
			<stop offset="1" stop-color="#FFFFFF" stop-opacity="0"/>
		</linearGradient>
		<path fill="#FFFFFF" fill-opacity="1" stroke-width="12" stroke-linejoin="round" stroke="url(#SVGID_Stroke1_)" d="M 47.9684,91.0137C 49.2188,92.3448 53.8172,93.0708 57.2862,94.1197C 60.7552,95.1682 63.0948,96.5398 66.2007,98.1936C 69.3067,99.8474 73.179,101.784 83.3439,107.068C 93.5089,112.352 109.966,120.984 121.14,126.954C 132.313,132.924 138.202,136.231 142.599,138.652C 146.996,141.072 149.9,142.605 152.522,143.25C 155.144,143.896 157.483,143.653 159.742,143.452C 162.001,143.25 164.179,143.089 166.075,142.161C 167.971,141.233 169.584,139.539 171.117,137.361C 172.65,135.183 174.102,132.52 179.749,121.992C 185.397,111.465 195.239,93.0708 200.402,82.4219C 205.565,71.773 206.049,68.8687 205.968,66.8921C 205.888,64.9157 205.242,63.8669 203.992,62.6568C 202.741,61.4466 200.886,60.0752 197.74,59.3894C 194.593,58.7038 190.156,58.7038 167.124,62.7375C 144.091,66.7711 102.464,74.8385 79.996,79.3562C 57.5283,83.8741 54.2206,84.8421 51.518,86.2942C 48.8155,87.7464 46.7179,89.6824 47.9684,91.0137 Z "/>
		<path fill="none" stroke-width="5" stroke-linejoin="round" stroke="#000000" stroke-opacity="1" d="M 40.551,105.154C 40.551,123.446 40.3843,158.613 40.5926,176.654C 40.801,194.696 41.3843,195.613 42.3843,196.696C 43.3843,197.779 44.801,199.029 46.426,199.946C 48.051,200.863 49.8843,201.446 57.0926,200.488C 64.301,199.529 76.8843,197.029 92.4676,193.529C 108.051,190.029 126.634,185.529 145.926,180.988C 165.218,176.446 185.218,171.863 196.259,169.196C 207.301,166.529 209.384,165.779 210.718,165.279C 212.051,164.779 212.634,164.529 213.176,163.863C 213.718,163.196 214.218,162.113 214.384,145.238C 214.551,128.363 214.384,95.6961 214.218,79.1544C 214.051,62.6128 213.884,62.1961 212.176,60.8628C 210.468,59.5294 207.218,57.2794 204.968,55.6961C 202.718,54.1128 201.468,53.1961 199.426,52.6544C 197.384,52.1128 194.551,51.9461 190.218,52.3628C 185.884,52.7794 180.051,53.7794 161.134,57.2378C 142.218,60.6961 110.218,66.6128 89.0093,70.6128C 67.801,74.6128 57.3843,76.6961 51.051,78.6128C 44.7176,80.5294 42.4676,82.2794 41.426,83.8628C 40.3843,85.4461 40.551,86.8628 40.551,105.154 Z "/>
		<path fill="none" stroke-width="5" stroke-linejoin="round" stroke="#000000" stroke-opacity="1" d="M 44.426,84.9044C 45.7176,86.2794 50.4676,87.0294 54.051,88.1128C 57.6343,89.1961 60.051,90.6128 63.2593,92.3211C 66.4676,94.0294 70.4676,96.0294 80.9676,101.488C 91.4676,106.946 108.468,115.863 120.009,122.029C 131.551,128.196 137.634,131.613 142.176,134.113C 146.718,136.613 149.718,138.196 152.426,138.863C 155.134,139.529 157.551,139.279 159.884,139.071C 162.218,138.863 164.468,138.696 166.426,137.738C 168.384,136.779 170.051,135.029 171.634,132.779C 173.218,130.529 174.718,127.779 180.551,116.904C 186.384,106.029 196.551,87.0294 201.884,76.0294C 207.218,65.0294 207.718,62.0294 207.634,59.9878C 207.551,57.9461 206.884,56.8628 205.593,55.6128C 204.301,54.3628 202.384,52.9461 199.134,52.2378C 195.884,51.5294 191.301,51.5294 167.509,55.6961C 143.718,59.8628 100.718,68.1961 77.5093,72.8628C 54.301,77.5294 50.8843,78.5294 48.0926,80.0294C 45.301,81.5294 43.1343,83.5294 44.426,84.9044 Z "/>
	</g>
</svg>
